app/dist/common/images/cooper-energy-ltd.svg

<svg fill="none" height="18" viewBox="0 0 18 18" width="18" xmlns="http://www.w3.org/2000/svg" xmlns:xlink="http://www.w3.org/1999/xlink"><linearGradient id="a" gradientUnits="userSpaceOnUse" x1="5.99997" x2="11.0984" y1="4.05219" y2="4.05219"><stop offset="0" stop-color="#a52221"/><stop offset="1" stop-color="#ed1c24"/></linearGradient><linearGradient id="b" gradientUnits="userSpaceOnUse" x1="6.42542" x2="10.9136" y1="6.92091" y2="6.92091"><stop offset="0" stop-color="#208334"/><stop offset="1" stop-color="#39b54a"/></linearGradient><linearGradient id="c" gradientUnits="userSpaceOnUse" x1="6.12985" x2="11.4897" y1="12.0409" y2="12.0409"><stop offset="0" stop-color="#2b943d"/><stop offset="1" stop-color="#39b54a"/></linearGradient><linearGradient id="d" gradientUnits="userSpaceOnUse" x1="6.27852" x2="11.1097" y1="9.37423" y2="9.37423"><stop offset="0" stop-color="#ed1c24"/><stop offset="1" stop-color="#a12220"/></linearGradient><path d="m0 0h18v18h-18z" fill="#f0f3fa"/><path d="m11.606 5.36568-5.12434-2.36568c-.16057.13311-.48169.50701-.48169.93771 0 .43069.26403.7287.39604.82387 1.21452.54652 3.75449 1.70483 4.19799 1.96586.4436.26103.4489.51118.3961.60363.3366-.10605 1.0099-.4617 1.0099-1.03596s-.2627-.8589-.394-.92943z" fill="url(#a)"/><path d="m11.1562 7.85984-4.57498-2.11277c-.19375.13365-.58125.49966-.58125.89445 0 .3948.3875.76081.58125.89446l2.9625 1.34169-.45.35469 1.87498.83274c.3438-.09764 1.0313-.45336 1.0313-1.0949 0-.64155-.5625-1.00755-.8438-1.11036z" fill="url(#b)"/><path d="m6 11.9003c0-.5428.64279-1.0178.96418-1.1875-.16427.2015.1306.5198.29857.6538 1.2627.5806 3.86265 1.7724 4.16095 1.8941.3729.1521.5763.4701.5763.8088 0 .271-.3449.7333-.5174.9306l-4.85871-2.1591c-.20796-.0874-.62389-.3979-.62389-.9407z" fill="url(#c)"/><path d="m9.02712 8.9467-1.88688-.89714c-.51583.15506-1.14027.57594-1.14027 1.20725 0 .50505.42534.82329.63801.91929l4.81902 2.193c.181-.0628.543-.3212.543-.8528 0-.5317-.4978-.9009-.7466-1.019l-2.78284-1.24049z" fill="url(#d)"/><path d="m9.66057 6.39612-.59368.25201 1.73201.77896v-.34824z" fill="#d4262e"/><path d="m7.25035 11.0944c-.12924-.1476-.06462-.3534-.06001-.3806l.06001-.0388 1.69397.7533-.65543.3029c-.3031-.1631-.93515-.5188-1.03854-.6368z" fill="#39b54a"/></svg>

<!-- by TradingView --><svg width="18" height="18" viewBox="0 0 18 18" fill="none" xmlns="http://www.w3.org/2000/svg">
<rect width="18" height="18" fill="#F0F3FA"/>
<path d="M11.606 5.36568L6.48166 3C6.32109 3.13311 5.99997 3.50701 5.99997 3.93771C5.99997 4.3684 6.264 4.66641 6.39601 4.76158C7.61053 5.3081 10.1505 6.46641 10.594 6.72744C11.0376 6.98847 11.0429 7.23862 10.9901 7.33107C11.3267 7.22502 12 6.86937 12 6.29511C12 5.72085 11.7373 5.43621 11.606 5.36568Z" fill="url(#paint0_linear_5723_202182)"/>
<path d="M11.1562 7.85984L6.58122 5.74707C6.38747 5.88072 5.99997 6.24673 5.99997 6.64152C5.99997 7.03632 6.38747 7.40233 6.58122 7.53598L9.54372 8.87767L9.09372 9.23236L10.9687 10.0651C11.3125 9.96746 12 9.61174 12 8.9702C12 8.32865 11.4375 7.96265 11.1562 7.85984Z" fill="url(#paint1_linear_5723_202182)"/>
<path d="M6 11.9003C6 11.3575 6.64279 10.8825 6.96418 10.7128C6.79991 10.9143 7.09478 11.2326 7.26275 11.3666C8.52545 11.9472 11.1254 13.139 11.4237 13.2607C11.7966 13.4128 12 13.7308 12 14.0695C12 14.3405 11.6551 14.8028 11.4826 15.0001L6.62389 12.841C6.41593 12.7536 6 12.4431 6 11.9003Z" fill="url(#paint2_linear_5723_202182)"/>
<path d="M9.02712 8.9467L7.14024 8.04956C6.62441 8.20462 5.99997 8.6255 5.99997 9.25681C5.99997 9.76186 6.42531 10.0801 6.63798 10.1761L11.457 12.3691C11.638 12.3063 12 12.0479 12 11.5163C12 10.9846 11.5022 10.6154 11.2534 10.4973L8.47056 9.25681L9.02712 8.9467Z" fill="url(#paint3_linear_5723_202182)"/>
<path d="M9.66057 6.39612L9.06689 6.64813L10.7989 7.42709V7.07885L9.66057 6.39612Z" fill="#D4262E"/>
<path d="M7.25035 11.0944C7.12111 10.9468 7.18573 10.741 7.19034 10.7138L7.25035 10.675L8.94432 11.4283L8.28889 11.7312C7.98579 11.5681 7.35374 11.2124 7.25035 11.0944Z" fill="#39B54A"/>
<defs>
<linearGradient id="paint0_linear_5723_202182" x1="5.99997" y1="4.05219" x2="11.0984" y2="4.05219" gradientUnits="userSpaceOnUse">
<stop stop-color="#A52221"/>
<stop offset="1" stop-color="#ED1C24"/>
</linearGradient>
<linearGradient id="paint1_linear_5723_202182" x1="6.42542" y1="6.92091" x2="10.9136" y2="6.92091" gradientUnits="userSpaceOnUse">
<stop stop-color="#208334"/>
<stop offset="1" stop-color="#39B54A"/>
</linearGradient>
<linearGradient id="paint2_linear_5723_202182" x1="6.12985" y1="12.0409" x2="11.4897" y2="12.0409" gradientUnits="userSpaceOnUse">
<stop stop-color="#2B943D"/>
<stop offset="1" stop-color="#39B54A"/>
</linearGradient>
<linearGradient id="paint3_linear_5723_202182" x1="6.27852" y1="9.37423" x2="11.1097" y2="9.37423" gradientUnits="userSpaceOnUse">
<stop stop-color="#ED1C24"/>
<stop offset="1" stop-color="#A12220"/>
</linearGradient>
</defs>
</svg>
